brandFactory_export/1.Light/Buscar analizar virus _1Light.svg

<?xml version="1.0" encoding="UTF-8"?>
<svg width="24px" height="24px" viewBox="0 0 24 24" version="1.1" xmlns="http://www.w3.org/2000/svg" xmlns:xlink="http://www.w3.org/1999/xlink">
    <title>1.Light/Buscar analizar virus _1Light</title>
    <g id="Symbols" stroke="none" stroke-width="1" fill="none" fill-rule="evenodd">
        <g id="1.Light/Buscar-analizar-virus-_1Light" fill="#5CB615" fill-rule="nonzero">
            <path d="M9.48907563,17.8285737 C14.1747899,17.8285737 17.9865546,14.0504202 17.9865546,9.40504202 C17.9865546,4.75966387 14.1747899,0.981512605 9.48907563,0.981512605 C4.80336134,0.981512605 0.991596639,4.75966387 0.991596639,9.40504202 C0.991596639,14.0504202 4.80336134,17.8319328 9.48907563,17.8285737 Z M23.4756303,22.7865546 C23.6672269,22.9747899 23.6705882,23.2840336 23.4823529,23.4756303 L23.4756303,23.4823529 C23.2840336,23.6739496 22.9714286,23.6739496 22.7764706,23.4823529 L15.7243697,16.4840336 C13.9966387,17.9865546 11.7815126,18.8134454 9.48907563,18.810084 C4.2487395,18.810084 0,14.5983193 0,9.40504202 C0,4.21176471 4.2487395,0 9.48907563,0 C14.7294118,0 18.9747899,4.21176471 18.9747899,9.40504202 C18.9747899,11.7815126 18.0638655,14.0705882 16.4302521,15.7983193 L23.4756303,22.7865546 Z M9.48907563,13.5764706 C11.3579832,13.5764706 11.8991597,12.8672269 11.8991597,10.410084 C11.8991597,8.87394958 11.6672269,8.04369748 11.1226891,7.63697479 C10.7697479,7.37478992 10.2352941,7.24705882 9.49243697,7.24705882 C8.7394958,7.24705882 8.20168067,7.37815126 7.85210084,7.64369748 C7.31428571,8.05378151 7.08571429,8.88067227 7.08571429,10.410084 C7.0789916,12.8672269 7.62352941,13.5764706 9.48907563,13.5764706 L9.48907563,13.5764706 Z M9.49243697,5.44537815 C7.82857143,5.44537815 7.82857143,5.85210084 7.82857143,6.32268908 C7.82857143,6.40672269 7.83529412,6.48067227 7.84537815,6.54453782 C8.29243697,6.36302521 8.8302521,6.26554622 9.48571429,6.26554622 C10.1445378,6.26554622 10.6857143,6.36302521 11.1361345,6.54453782 C11.1462185,6.48067227 11.1529412,6.40672269 11.1529412,6.31932773 C11.1563025,5.85210084 11.1563025,5.44537815 9.49243697,5.44537815 L9.49243697,5.44537815 Z M13.7647059,9.48571429 C14.0369748,9.48571429 14.2588235,9.70420168 14.2588235,9.97647059 L14.2588235,10.8840336 C14.2588235,11.1563025 14.0369748,11.3747899 13.7647059,11.3747899 C13.492437,11.3747899 13.2705882,11.1563025 13.2705882,10.8840336 L13.2705882,10.4672269 L12.887395,10.4672269 C12.8840336,11.2605042 12.810084,11.9596639 12.6319328,12.5512605 L13.6134454,12.8470588 C13.8285714,12.9109244 13.9731092,13.1159664 13.9630252,13.3411765 L13.8890756,14.7058824 C13.8756303,14.9680672 13.6571429,15.1731092 13.394958,15.1697479 L13.3680672,15.1697479 C13.0957983,15.1563025 12.887395,14.9243697 12.9008403,14.6554622 L12.9546218,13.6705882 L12.2184874,13.4487395 C11.7176471,14.1512605 10.8773109,14.5579832 9.49243697,14.5579832 C8.10084034,14.5579832 7.2605042,14.1512605 6.75966387,13.4453782 L6.00336134,13.6739496 L6.05714286,14.6588235 C6.07058824,14.9310924 5.86218487,15.1596639 5.58991597,15.1731092 L5.56302521,15.1731092 C5.30084034,15.1731092 5.08571429,14.9714286 5.06890756,14.7092437 L4.99495798,13.3445378 C4.98151261,13.1193277 5.12605042,12.9142857 5.34453782,12.8504202 L6.34957983,12.5478992 C6.17478992,11.9563025 6.10084034,11.2605042 6.09747899,10.4705882 L5.71092437,10.4705882 L5.71092437,10.887395 C5.71092437,11.1596639 5.48907563,11.3781513 5.21680672,11.3781513 C4.94453782,11.3781513 4.72268908,11.1596639 4.72268908,10.887395 L4.72268908,9.97983193 C4.72268908,9.70756303 4.94453782,9.48907563 5.21680672,9.48907563 L6.12773109,9.48907563 C6.17478992,8.87394958 6.29579832,8.2789916 6.54453782,7.76470588 L5.34453782,7.39831933 C5.12605042,7.33445378 4.98151261,7.12941176 4.99495798,6.90420168 L5.06890756,5.5394958 C5.08235294,5.26722689 5.32773109,5.04201681 5.58991597,5.07563025 C5.86218487,5.08907563 6.07058824,5.3210084 6.05714286,5.58991597 L6.00336134,6.57142857 L6.90420168,6.84369748 C6.86386555,6.67226891 6.84369748,6.49747899 6.84033613,6.32268908 C6.84033613,5.15966387 7.54285714,4.72605042 8.2789916,4.56470588 L8.19159664,4.47731092 C8,4.28907563 8,3.97983193 8.18823529,3.78823529 L8.19159664,3.78487395 C8.38655462,3.59327731 8.69579832,3.59327731 8.8907563,3.78487395 L9.34453782,4.23193277 C9.40840336,4.29579832 9.4487395,4.37983193 9.46554622,4.46722689 L9.47563025,4.46722689 C9.49243697,4.37647059 9.53613445,4.29579832 9.6,4.23193277 L10.0504202,3.78487395 C10.2453782,3.59327731 10.5546218,3.59327731 10.7495798,3.78487395 C10.9411765,3.97310924 10.9445378,4.28235294 10.7563025,4.47394958 L10.7495798,4.48067227 L10.6689076,4.56134454 C11.4184874,4.71596639 12.1445378,5.14285714 12.1445378,6.32605042 C12.1445378,6.51092437 12.1210084,6.6789916 12.0840336,6.83697479 L12.9512605,6.57478992 L12.897479,5.59327731 C12.8840336,5.3210084 13.092437,5.09243697 13.3647059,5.0789916 C13.6470588,5.04537815 13.8722689,5.27058824 13.8857143,5.54285714 L13.9596639,6.90756303 C13.9731092,7.13277311 13.8285714,7.33781513 13.610084,7.40168067 L12.4336134,7.75462185 C12.6857143,8.26890756 12.8067227,8.87058824 12.8537815,9.48571429 L13.7647059,9.48571429 L13.7647059,9.48571429 Z M9.45210084,8.47391188 C9.72436975,8.47391188 9.94621849,8.69243697 9.94621849,8.96470588 L9.94621849,12.3596639 C9.94621849,12.6319328 9.72436975,12.8504202 9.45210084,12.8504202 C9.17983193,12.8504202 8.95798319,12.6319328 8.95798319,12.3596639 L8.95798319,8.96470588 C8.95798319,8.69243697 9.17983193,8.47058824 9.45210084,8.47391188 Z" id="Buscar-analizar-virus-_1Light"></path>
        </g>
    </g>
</svg>

<svg width="24" height="24" viewBox="0 0 24 24" xmlns="http://www.w3.org/2000/svg"><path d="M9.49 17.829c4.685 0 8.497-3.779 8.497-8.424S14.175.982 9.489.982.992 4.76.992 9.405s3.811 8.427 8.497 8.424zm13.986 4.958a.488.488 0 01.006.689l-.006.006a.497.497 0 01-.7 0l-7.052-6.998A9.481 9.481 0 019.49 18.81C4.25 18.81 0 14.598 0 9.405S4.249 0 9.49 0c5.24 0 9.485 4.212 9.485 9.405 0 2.377-.911 4.666-2.545 6.393l7.046 6.989zm-13.987-9.21c1.869 0 2.41-.71 2.41-3.167 0-1.536-.232-2.366-.776-2.773-.353-.262-.888-.39-1.63-.39-.754 0-1.291.131-1.64.397-.539.41-.767 1.237-.767 2.766-.007 2.457.538 3.166 2.403 3.166zm.003-8.132c-1.663 0-1.663.407-1.663.878 0 .084.006.158.016.222.447-.182.985-.28 1.64-.28.66 0 1.2.098 1.651.28.01-.064.017-.138.017-.226.003-.467.003-.874-1.66-.874zm4.273 4.04c.272 0 .494.22.494.491v.908c0 .272-.222.49-.494.49a.492.492 0 01-.494-.49v-.417h-.384c-.003.794-.077 1.493-.255 2.084l.981.296c.216.064.36.269.35.494l-.074 1.365a.489.489 0 01-.494.464h-.027a.492.492 0 01-.467-.515l.054-.984-.737-.222c-.5.702-1.34 1.109-2.726 1.109-1.391 0-2.231-.407-2.732-1.113l-.757.229.054.985a.49.49 0 01-.467.514h-.027a.494.494 0 01-.494-.464l-.074-1.364a.485.485 0 01.35-.495l1.005-.302c-.175-.592-.25-1.287-.253-2.077h-.386v.416c0 .273-.222.491-.494.491a.492.492 0 01-.494-.49V9.98c0-.272.222-.49.494-.49h.91c.048-.616.169-1.211.418-1.725l-1.2-.367a.485.485 0 01-.35-.494l.074-1.365c.013-.272.259-.497.52-.463.273.013.482.245.468.514l-.054.981.901.273a2.482 2.482 0 01-.064-.521c0-1.163.703-1.597 1.439-1.758l-.087-.088a.488.488 0 01-.004-.689l.004-.003a.497.497 0 01.699 0l.454.447a.453.453 0 01.12.235h.01a.446.446 0 01.125-.235l.45-.447a.497.497 0 01.7 0 .488.488 0 01.006.689l-.006.007-.081.08c.75.155 1.476.582 1.476 1.765 0 .185-.024.353-.061.511l.867-.262-.054-.982a.49.49 0 01.468-.514c.282-.034.507.192.52.464l.075 1.365a.485.485 0 01-.35.494l-1.176.353c.252.514.373 1.116.42 1.73h.91zM9.452 8.475c.272 0 .494.218.494.49v3.396c0 .272-.222.49-.494.49a.492.492 0 01-.494-.49V8.965a.49.49 0 01.494-.491z" fill="#5CB615" fill-rule="nonzero"/></svg>
